Otagle3/Assets/ikonySvG/WyswietlPanelStosowaniaStylow_K.svg

<svg id="SVGRoot" width="208" height="208" version="1.1" viewBox="0 0 208 208" xmlns="http://www.w3.org/2000/svg">
 <g transform="translate(0,7)">
  <g transform="matrix(3.7795 0 0 3.7795 10.171 -6.7758)">
   <g transform="translate(-1.0884 -121.69)">
    <g transform="translate(1.6608 -59.209)">
     <g transform="translate(-.6443 -59.335)">
      <g transform="translate(-1396.8 269.89)">
       <g transform="translate(-57.972 -.024822)">
        <g transform="translate(1658.1 73.867)">
         <g transform="translate(-203.03 -103.33)">
          <flowRoot transform="matrix(.26458 0 0 .26458 -2.875 1.091)" fill="#000000" font-family="sans-serif" font-size="40px" letter-spacing="0px" word-spacing="0px" style="line-height:1.25" xml:space="preserve"><flowRegion><rect x="-85.582" y="-60.812" width="342.33" height="293.65"/></flowRegion><flowPara/></flowRoot>
          <g transform="translate(-1039.4 318.88)">
           <flowRoot transform="matrix(.26458 0 0 .26458 1036.5 -317.79)" fill="#000000" font-family="sans-serif" font-size="40px" letter-spacing="0px" word-spacing="0px" style="line-height:1.25" xml:space="preserve"><flowRegion><rect x="-105.21" y="-13.703" width="562.17" height="513.49"/></flowRegion><flowPara/></flowRoot>
           <g transform="translate(-66.134 .039287)">
            <g transform="translate(-66.173 .043409)">
             <flowRoot transform="matrix(.26458 0 0 .26458 1168.8 -317.87)" fill="#000000" font-family="sans-serif" font-size="40px" letter-spacing="0px" word-spacing="0px" style="line-height:1.25" xml:space="preserve"><flowRegion><rect x="-114.63" y="-91.434" width="675.23" height="522.91"/></flowRegion><flowPara/></flowRoot>
             <g transform="translate(-66.2 -.040316)">
              <g transform="translate(-65.918 -.60254)">
               <g transform="translate(-66.6 .14883)">
                <flowRoot fill="black" font-family="sans-serif" font-size="40px" letter-spacing="0px" word-spacing="0px" style="line-height:1.25" xml:space="preserve"><flowRegion><rect x="-24.34" y="-19.695" width="252.04" height="245.75"/></flowRegion><flowPara/></flowRoot>
                <g transform="translate(-68.678 -.48293)">
                 <flowRoot fill="black" font-family="sans-serif" font-size="40px" letter-spacing="0px" word-spacing="0px" style="line-height:1.25" xml:space="preserve"><flowRegion><rect x="-65.168" y="-26.762" width="382.37" height="335.26"/></flowRegion><flowPara/></flowRoot>
                 <g transform="translate(-63.347 .4912)">
                  <g transform="translate(529.82 -.18087)">
                   <g transform="translate(794.67 .06923)">
                    <g transform="translate(-198.36 .17569)">
                     <g transform="translate(-530.68 .043413)">
                      <g transform="translate(912.04 -.041317)">
                       <g transform="translate(132.58 -.39794)">
                        <g transform="translate(-580.62 .35866)">
                         <g transform="translate(-264.6 -.1571)">
                          <g transform="translate(463.55 .097138)">
                           <g transform="translate(-397.36 .059959)">
                            <g transform="translate(66.026 -.30592)">
                             <g transform="translate(-264.69 -.093008)">
                              <g transform="translate(734.89 179.33)">
                               <g transform="translate(-205.07 -178.97)">
                                <g transform="translate(-1081.1 -686.85)">
                                 <flowRoot fill="black" font-family="sans-serif" font-size="40px" letter-spacing="0px" word-spacing="0px" style="line-height:1.25" xml:space="preserve"><flowRegion><rect x="21" y="-71" width="223" height="308"/></flowRegion><flowPara/></flowRoot>
                                 <g transform="translate(-112.28 .55746)">
                                  <g transform="translate(-396.77 -.26462)">
                                   <g transform="translate(167.68 .26462)">
                                    <g transform="translate(457.35 -.55746)">
                                     <g transform="translate(452.66 .26458)">
                                      <g transform="translate(-200.71 456.02)">
                                       <g transform="translate(982.25 -278.99)">
                                        <rect x="39.753" y="192.33" width="52.632" height="52.632" fill="#87deaa" stroke="#000" stroke-linecap="round" stroke-width=".28429" style="paint-order:fill markers stroke"/>
                                        <text x="66.008461" y="233.9994" font-family="sans-serif" font-size="4.9389px" letter-spacing="0px" stroke-width=".26458" text-align="end" text-anchor="middle" word-spacing="0px" style="line-height:1.04999995" xml:space="preserve"><tspan x="66.876625" y="233.9994" text-align="center">Wyświetl panel </tspan><tspan x="66.008461" y="240.6669" text-align="center">stosowania stylów</tspan></text>
                                        <path d="m53.529 222.02h33.045l-7.9929-13.844h-33.018l7.9098 13.901" fill="none" stroke="#000" stroke-width=".26458px"/>
                                        <g transform="matrix(61.69 0 0 61.69 63.41 200.2)" clip-rule="evenodd" fill-rule="evenodd" image-rendering="optimizeQuality" shape-rendering="geometricPrecision">
                                         <path class="fil0" d="m.24559.23671c.01615-.047382-.0038032-.069662-.037839-.090072-.002484-.001488.007457.032855.004815.031414-.012756-.00698-.00027166-.034174-.064001-.060142-.001937-.00079135.003874.023426.002075.022622-.02876-.047323-.014622-.0043032-.055749-.049595-.0032402-.0018268.0043308.017048.0011181.015122-.011677-.021335-.024268-.019725-.054056-.05219-.0023347-.0022796.002689.020386.00024804.017969-.017918-.032115-.019248-.023882-.042201-.071836.0023937.097143.022701.096907.051662.12804.001374.002315-.023071-.01187-.021618-.009583.039122.061473.056792.040863.072009.056524.001591.001638-.029201-.003563-.027583-.001965.071981.07108.075639.034595.10557.049229.004417.002161-.017886.012099-.013512.013882.027406.011177.043394.01878.064564.011784.003831.003921-.009347.007146-.014516.013925.00152-.0003189.01591-.0015.015681-.001217-.001134.001417-.006004.01417-.006221.014528-.00018505.00029528.010102-.011095.011618-.011858.00021653-.00011024.003366.017173.003595.017059.00012204-5.906e-5.003004-.022469.004847-.020504.019583.020827.051194.054871.06252.060276-.006461-.023327-.03304-.050587-.049812-.067166-.001264-.001035.018784-.014776.019839-.01563-7.087e-5-5.906e-5-.017453.002732-.019051.002595-.0005197-.00037008.010591-.014307.010181-.013827-.002283.002681-.012591.005402-.013307.004374-.00029922-.001776-.00034647-.013772-.00041733-.013827-.00014174-.00011418-.007099.022776-.010457.020068zm-.019929-.002165c-.023792-.021059-.16556-.11804-.18883-.14997.035934.041068.14584.096726.20577.1576.017516.013811.037461.032434.046044.053324-.002658.001098-.050957-.050316-.062985-.060958z"/>
                                         <path class="fil1" d="m.30958.32232c-.072001-.0082009-.097178-.0081182-.16822-.043351-.070446-.034938-.096895-.047678-.10369-.033973-.0033504.006756.013744.020272.014532.0288.0021378.023343-.022276.023248-.035902.01989l-.0016536.006724c.021973.005417.046469-.005138.044445-.027237-.00069686-.007575-.017701-.020087-.015209-.025114.0050867-.010256.028949.004654.094415.037122.075796.037595.093891.040571.17128.037139z"/>
                                        </g>
                                       </g>
                                      </g>
                                     </g>
                                    </g>
                                   </g>
                                  </g>
                                 </g>
                                </g>
                               </g>
                              </g>
                             </g>
                            </g>
                           </g>
                          </g>
                         </g>
                        </g>
                       </g>
                      </g>
                     </g>
                    </g>
                   </g>
                  </g>
                 </g>
                </g>
               </g>
              </g>
             </g>
            </g>
           </g>
          </g>
         </g>
        </g>
       </g>
      </g>
     </g>
    </g>
   </g>
  </g>
 </g>
</svg>

<?xml version="1.0" encoding="UTF-8" standalone="no"?>
<svg
   xmlns:dc="http://purl.org/dc/elements/1.1/"
   xmlns:cc="http://creativecommons.org/ns#"
   xmlns:rdf="http://www.w3.org/1999/02/22-rdf-syntax-ns#"
   xmlns:svg="http://www.w3.org/2000/svg"
   xmlns="http://www.w3.org/2000/svg"
   id="svg47"
   version="1.1"
   viewBox="0 0 52.758294 52.758296"
   height="199.40143"
   width="199.40143">
  <defs
     id="defs42">
    <pattern
       id="EMFhbasepattern"
       patternUnits="userSpaceOnUse"
       width="6"
       height="6"
       x="0"
       y="0" />
  </defs>
  <metadata
     id="metadata45">
    <rdf:RDF>
      <cc:Work
         rdf:about="">
        <dc:format>image/svg+xml</dc:format>
        <dc:type
           rdf:resource="http://purl.org/dc/dcmitype/StillImage" />
        <dc:title></dc:title>
      </cc:Work>
    </rdf:RDF>
  </metadata>
  <g
     id="g8556"
     transform="translate(49.836509,-375.23204)">
    <g
       id="g5305">
      <text
         id="text898-7-3-6-8-3-3-0-66-7-8-8-0-8-3-4-2-6-22-3-3-4-7-0-2-6-2"
         y="425.61624"
         x="-23.21401"
         style="font-size:6.3499999px;line-height:0.94999999;font-family:voestalpine;-inkscape-font-specification:voestalpine;text-align:center;letter-spacing:0px;word-spacing:0px;text-anchor:middle;fill:#ffffff;fill-opacity:1;stroke-width:0.26458299"
         xml:space="preserve"><tspan
           style="font-size:6.3499999px;text-align:center;text-anchor:middle;fill:#ffffff;fill-opacity:1;stroke-width:0.26458299"
           y="425.61624"
           x="-23.21401"
           id="tspan3280-8-2-3-8">Pokaż nagłówek</tspan></text>
      <g
         style="fill:#ffffff;fill-opacity:1;stroke:#ffffff;stroke-opacity:1"
         id="g3425-7-6"
         transform="matrix(0.43424404,0,0,-0.43424404,-44.80073,415.59384)">
        <rect
           id="rect3393-7-1"
           height="2"
           width="13.89"
           y="68.667"
           x="17.409"
           style="fill:#ffffff;fill-opacity:1;stroke:#ffffff;stroke-opacity:1" />
        <path
           id="path3395-1-7"
           d="M 85.235,77.833 H 14.106 c -2.998,0 -5.436,-2.438 -5.436,-5.436 V 23.27 c 0,-2.998 2.438,-5.436 5.436,-5.436 h 71.129 c 2.998,0 5.436,2.438 5.436,5.436 v 49.128 c -0.001,2.998 -2.438,5.435 -5.436,5.435 z m -71.129,-58 c -1.895,0 -3.436,1.541 -3.436,3.437 v 49.128 c 0,1.895 1.541,3.436 3.436,3.436 h 71.129 c 1.895,0 3.436,-1.541 3.436,-3.436 V 23.27 c 0,-1.896 -1.541,-3.437 -3.436,-3.437 z"
           style="fill:#ffffff;fill-opacity:1;stroke:#ffffff;stroke-opacity:1" />
        <rect
           id="rect3397-6-6"
           height="2"
           width="13.89"
           y="68.667"
           x="42.648998"
           style="fill:#ffffff;fill-opacity:1;stroke:#ffffff;stroke-opacity:1" />
        <rect
           id="rect3399-8-5"
           height="2"
           width="13.89"
           y="68.667"
           x="67.704002"
           style="fill:#ffffff;fill-opacity:1;stroke:#ffffff;stroke-opacity:1" />
        <rect
           id="rect3401-4-7"
           height="2"
           width="13.89"
           y="62.667"
           x="17.500999"
           style="fill:#ffffff;fill-opacity:1;stroke:#ffffff;stroke-opacity:1" />
        <rect
           id="rect3403-9-4"
           height="2"
           width="13.89"
           y="62.667"
           x="42.742001"
           style="fill:#ffffff;fill-opacity:1;stroke:#ffffff;stroke-opacity:1" />
        <rect
           id="rect3405-2-5"
           height="2"
           width="13.89"
           y="62.667"
           x="67.795998"
           style="fill:#ffffff;fill-opacity:1;stroke:#ffffff;stroke-opacity:1" />
        <rect
           id="rect3407-0-9"
           height="2"
           width="64.139"
           y="56.667"
           x="17.500999"
           style="fill:#ffffff;fill-opacity:1;stroke:#ffffff;stroke-opacity:1" />
      </g>
      <g
         id="g974"
         transform="translate(-89.353208,182.81473)">
        <rect
           y="192.32553"
           x="39.753342"
           height="52.63237"
           width="52.632374"
           id="rect833-2-8-6-2-6-4-8-1-7-4-6-9-4-5-2-1-0-8-5"
           style="fill:#87deaa;fill-opacity:1;stroke:#000000;stroke-width:0.28429499;stroke-linecap:round;stroke-miterlimit:4;stroke-dasharray:none;stroke-opacity:1;paint-order:fill markers stroke" />
        <text
           id="text837-2-5-3-5-4-2-1-6-9-68-0-7-6-7-4-4-4-2-9"
           y="235.65216"
           x="66.008461"
           style="font-size:6.3499999px;line-height:1.04999995;font-family:voestalpine;-inkscape-font-specification:voestalpine;text-align:end;letter-spacing:0px;word-spacing:0px;text-anchor:end;stroke-width:0.26458299"
           xml:space="preserve"><tspan
             style="font-size:6.3499999px;text-align:center;text-anchor:middle;stroke-width:0.26458299"
             y="235.65216"
             x="66.771202"
             id="tspan4116-7-1">Wyświetl panel </tspan><tspan
             style="font-size:6.3499999px;text-align:center;text-anchor:middle;stroke-width:0.26458299"
             y="242.31966"
             x="66.008461"
             id="tspan4262">stosowania stylów</tspan></text>
        <path
           style="fill:none;stroke:#000000;stroke-width:0.26458299px;stroke-linecap:butt;stroke-linejoin:miter;stroke-opacity:1"
           d="M 53.528841,222.01908 H 86.573912 L 78.581051,208.17504 H 45.563496 l 7.909846,13.90071"
           id="path4258" />
        <g
           transform="matrix(61.689956,0,0,61.689956,63.409889,200.19911)"
           id="g4181-0"
           style="clip-rule:evenodd;fill:#000000;fill-rule:evenodd;image-rendering:optimizeQuality;shape-rendering:geometricPrecision;text-rendering:geometricPrecision">
          <g
             id="g4169-7">
            <path
               class="fil0"
               d="M 0.24559,0.236708 C 0.2617398,0.1893255 0.2417868,0.1670457 0.2077509,0.146636 0.2052669,0.145148 0.2152079,0.1794907 0.2125659,0.1780498 0.1998098,0.1710698 0.21229424,0.1438761 0.1485651,0.1179073 0.1466281,0.11711595 0.1524391,0.1413328 0.1506401,0.1405296 0.12187975,0.0932062 0.13601775,0.1362264 0.09489125,0.0909345 0.09165105,0.08910771 0.09922201,0.107982 0.09600937,0.1060567 0.08433207,0.0847218 0.07174137,0.086332 0.04195357,0.0538671 0.03961889,0.05158754 0.04464258,0.0742532 0.04220161,0.0718358 0.02428401,0.0397212 0.02295331,0.0479536 3.05e-7,2e-7 0.00239404,0.0971432 0.02270141,0.0969069 0.05166241,0.1280412 c 0.001374,0.002315 -0.0230712,-0.0118702 -0.0216184,-0.009583 0.0391225,0.0614732 0.0567921,0.0408627 0.0720088,0.0565243 0.001591,0.001638 -0.0292012,-0.003563 -0.027583,-0.001965 0.0719812,0.0710796 0.0756388,0.0345949 0.105568,0.049229 0.004417,0.002161 -0.0178861,0.0120986 -0.013512,0.0138821 0.0274059,0.0111773 0.0433943,0.0187798 0.0645638,0.0117836 0.003831,0.003921 -0.009347,0.007146 -0.0145159,0.0139254 0.00152,-3.189e-4 0.0159097,-0.0015 0.0156813,-0.001217 -0.001134,0.001417 -0.006004,0.0141695 -0.006221,0.0145277 -1.8505e-4,2.9528e-4 0.0101025,-0.0110946 0.0116183,-0.0118584 2.1653e-4,-1.1024e-4 0.003366,0.0171734 0.003595,0.0170593 1.2204e-4,-5.906e-5 0.003004,-0.0224688 0.004847,-0.0205042 0.0195829,0.020827 0.0511936,0.0548708 0.0625205,0.0602764 -0.006461,-0.0233271 -0.0330398,-0.0505873 -0.0498117,-0.0671662 -0.001264,-0.001035 0.0187837,-0.0147758 0.0198388,-0.0156301 -7.087e-5,-5.906e-5 -0.017453,0.002732 -0.0190514,0.002595 -5.197e-4,-3.7008e-4 0.0105907,-0.0143073 0.0101812,-0.0138269 -0.002283,0.002681 -0.0125907,0.005402 -0.0133073,0.004374 C 0.25616519,0.2286912 0.25611794,0.2166954 0.25604708,0.2166403 0.25590534,0.21652612 0.24894808,0.2394162 0.24559,0.236708 Z M 0.2256606,0.234543 C 0.201869,0.2134837 0.0600996,0.116506 0.0368316,0.084577 c 0.0359335,0.0410675 0.145844,0.0967256 0.20577,0.1576 0.017516,0.0138112 0.0374611,0.0324335 0.0460439,0.0533235 C 0.2859875,0.2965985 0.2376882,0.2451849 0.2256606,0.234543 Z"
               id="path4165-2" />
            <path
               class="fil1"
               d="M 0.309583,0.322315 C 0.2375821,0.31411411 0.2124046,0.31419679 0.141364,0.2789641 0.0709182,0.2440266 0.0444691,0.2312863 0.037674,0.2449912 0.0343236,0.2517472 0.0514183,0.2652631 0.0522057,0.2737908 0.0543435,0.2971336 0.0299298,0.2970391 0.0163037,0.2936808 L 0.0146501,0.3004048 C 0.0366228,0.3058218 0.0611192,0.2952668 0.0590955,0.2731682 0.05839864,0.2655932 0.0413945,0.2530813 0.0438866,0.2480537 0.0489733,0.2377977 0.0728358,0.2527077 0.1383012,0.2851762 0.2140974,0.3227712 0.2321922,0.3257476 0.309583,0.322315 Z"
               id="path4167-7" />
          </g>
        </g>
      </g>
    </g>
  </g>
</svg>
